humanity-icon-theme/Humanity-Dark/status/48/gpm-primary-040-charging.svg

<?xml version="1.0" encoding="UTF-8" standalone="no"?>
<!-- Created with Inkscape (http://www.inkscape.org/) -->

<svg
   xmlns:svg="http://www.w3.org/2000/svg"
   xmlns="http://www.w3.org/2000/svg"
   xmlns:xlink="http://www.w3.org/1999/xlink"
   version="1.1"
   width="48"
   height="48"
   id="svg2945">
  <defs
     id="defs2947">
    <linearGradient
       id="linearGradient4325">
      <stop
         id="stop4327"
         style="stop-color:#fbfbfb;stop-opacity:0.58823532"
         offset="0" />
      <stop
         id="stop4329"
         style="stop-color:#fbfbfb;stop-opacity:0"
         offset="1" />
    </linearGradient>
    <linearGradient
       id="linearGradient4299">
      <stop
         id="stop4301"
         style="stop-color:#d7e866;stop-opacity:1"
         offset="0" />
      <stop
         id="stop4303"
         style="stop-color:#fbfbfb;stop-opacity:0"
         offset="1" />
    </linearGradient>
    <linearGradient
       id="linearGradient4291">
      <stop
         id="stop4293"
         style="stop-color:#8cab2a;stop-opacity:1"
         offset="0" />
      <stop
         id="stop4295"
         style="stop-color:#d7e866;stop-opacity:1"
         offset="0.37917796" />
      <stop
         id="stop4297"
         style="stop-color:#8cab2a;stop-opacity:1"
         offset="1" />
    </linearGradient>
    <linearGradient
       id="linearGradient4281">
      <stop
         id="stop4283"
         style="stop-color:#69aa28;stop-opacity:1"
         offset="0" />
      <stop
         id="stop4285"
         style="stop-color:#548820;stop-opacity:1"
         offset="1" />
    </linearGradient>
    <linearGradient
       id="linearGradient4253">
      <stop
         id="stop4255"
         style="stop-color:#000000;stop-opacity:0.10588235"
         offset="0" />
      <stop
         id="stop4257"
         style="stop-color:#000000;stop-opacity:0"
         offset="0.5" />
      <stop
         id="stop4259"
         style="stop-color:#000000;stop-opacity:0.10588235"
         offset="1" />
    </linearGradient>
    <linearGradient
       id="linearGradient4241">
      <stop
         id="stop4243"
         style="stop-color:#000000;stop-opacity:0.27058825"
         offset="0" />
      <stop
         id="stop4249"
         style="stop-color:#000000;stop-opacity:0"
         offset="0.5" />
      <stop
         id="stop4245"
         style="stop-color:#000000;stop-opacity:0.27058825"
         offset="1" />
    </linearGradient>
    <linearGradient
       x1="15"
       y1="23"
       x2="32"
       y2="23"
       id="linearGradient4247"
       xlink:href="#linearGradient4241"
       gradientUnits="userSpaceOnUse"
       gradientTransform="matrix(1,0,0,0.92965233,0,-13.781273)" />
    <linearGradient
       x1="15"
       y1="23"
       x2="32"
       y2="23"
       id="linearGradient4261"
       xlink:href="#linearGradient4253"
       gradientUnits="userSpaceOnUse"
       gradientTransform="matrix(1,0,0,0.92965233,0,-13.781273)" />
    <linearGradient
       x1="18.804668"
       y1="5.8000488"
       x2="26.855783"
       y2="43.218105"
       id="linearGradient4287"
       xlink:href="#linearGradient4281"
       gradientUnits="userSpaceOnUse"
       gradientTransform="matrix(1,0,0,0.92965233,0,-13.781273)" />
    <linearGradient
       x1="15"
       y1="23"
       x2="32"
       y2="23"
       id="linearGradient4289"
       xlink:href="#linearGradient4291"
       gradientUnits="userSpaceOnUse"
       gradientTransform="matrix(1,0,0,0.92965233,0,-13.781273)" />
    <linearGradient
       x1="13.775995"
       y1="44.446079"
       x2="32.696804"
       y2="43.445534"
       id="linearGradient4305"
       xlink:href="#linearGradient4299"
       gradientUnits="userSpaceOnUse"
       gradientTransform="matrix(1.0060525,0,0,0.90055507,0.1406259,-28.204158)" />
    <linearGradient
       x1="11.788027"
       y1="43.445534"
       x2="34.649654"
       y2="43.445534"
       id="linearGradient4331"
       xlink:href="#linearGradient4325"
       gradientUnits="userSpaceOnUse" />
    <linearGradient
       x1="102.30806"
       y1="-2.3925467"
       x2="102.30806"
       y2="-24.582239"
       id="linearGradient4086-8"
       xlink:href="#linearGradient3844-9-5"
       gradientUnits="userSpaceOnUse"
       gradientTransform="matrix(0.1792665,0,0,0.14629793,6.3662019,-11.818182)"
       spreadMethod="reflect" />
    <linearGradient
       id="linearGradient3844-9-5">
      <stop
         id="stop3846-5-2"
         style="stop-color:#a5a6a8;stop-opacity:1"
         offset="0" />
      <stop
         id="stop3848-7-9"
         style="stop-color:#e8e8e8;stop-opacity:1"
         offset="1" />
    </linearGradient>
    <linearGradient
       x1="109.95628"
       y1="-24.91135"
       x2="109.95628"
       y2="-2.3757858"
       id="linearGradient4088-8"
       xlink:href="#linearGradient2509-6-3"
       gradientUnits="userSpaceOnUse"
       gradientTransform="matrix(0.1792665,0,0,0.14629793,6.3662019,-11.818182)" />
    <linearGradient
       id="linearGradient2509-6-3">
      <stop
         id="stop2511-4-1"
         style="stop-color:#b3b3b3;stop-opacity:1"
         offset="0" />
      <stop
         id="stop2513-9-0"
         style="stop-color:#dadada;stop-opacity:1"
         offset="1" />
    </linearGradient>
    <linearGradient
       id="linearGradient2793-2-0">
      <stop
         id="stop2795-3-2"
         style="stop-color:#868688;stop-opacity:1"
         offset="0" />
      <stop
         id="stop2797-1-0"
         style="stop-color:#d9d9da;stop-opacity:1"
         offset="1" />
    </linearGradient>
    <linearGradient
       id="linearGradient3858-1-3">
      <stop
         id="stop3860-3-1"
         style="stop-color:#a0a0a0;stop-opacity:1"
         offset="0" />
      <stop
         id="stop3862-8-0"
         style="stop-color:#646464;stop-opacity:1"
         offset="1" />
    </linearGradient>
    <linearGradient
       x1="103.95014"
       y1="-7.6656942"
       x2="89.423676"
       y2="-7.6656942"
       id="linearGradient2900"
       xlink:href="#linearGradient2793-2-0"
       gradientUnits="userSpaceOnUse"
       gradientTransform="matrix(0.17836384,0,0,0.15586184,5.1996357,-7.965557)"
       spreadMethod="reflect" />
    <linearGradient
       x1="89.01844"
       y1="22.536863"
       x2="89.01844"
       y2="27.54611"
       id="linearGradient2902"
       xlink:href="#linearGradient3858-1-3"
       gradientUnits="userSpaceOnUse"
       gradientTransform="matrix(0.3895815,0,0,0.36055258,-12.94142,-18.22603)" />
    <linearGradient
       x1="22"
       y1="27.732166"
       x2="29.624184"
       y2="61.085434"
       id="linearGradient4419"
       xlink:href="#linearGradient4281"
       gradientUnits="userSpaceOnUse"
       gradientTransform="matrix(1,0,0,0.92965233,0,-27.781273)" />
    <linearGradient
       id="linearGradient3280">
      <stop
         id="stop3282"
         style="stop-color:#000000;stop-opacity:1"
         offset="0" />
      <stop
         id="stop3284"
         style="stop-color:#000000;stop-opacity:0"
         offset="1" />
    </linearGradient>
    <radialGradient
       cx="21.34375"
       cy="14.125"
       r="11.96875"
       fx="21.34375"
       fy="14.125"
       id="radialGradient2921"
       xlink:href="#linearGradient3280"
       gradientUnits="userSpaceOnUse"
       gradientTransform="matrix(1.2532643,0,0,0.43050677,-3.2493464,19.784834)" />
    <linearGradient
       id="linearGradient9421">
      <stop
         id="stop9423"
         style="stop-color:#ffffff;stop-opacity:1"
         offset="0" />
      <stop
         id="stop9425"
         style="stop-color:#ffffff;stop-opacity:0"
         offset="1" />
    </linearGradient>
    <filter
       x="-0.82964343"
       y="-0.064677492"
       width="2.6592867"
       height="1.129355"
       color-interpolation-filters="sRGB"
       id="filter9752">
      <feGaussianBlur
         id="feGaussianBlur9754"
         stdDeviation="1.0370543" />
    </filter>
    <linearGradient
       x1="718.5"
       y1="56.875"
       x2="718.5"
       y2="110.92456"
       id="linearGradient4461"
       xlink:href="#linearGradient9421"
       gradientUnits="userSpaceOnUse"
       gradientTransform="translate(-689.65702,-67.585216)" />
  </defs>
  <g
     transform="translate(0,16)"
     id="layer1">
    <path
       d="m 38.5,25.865743 c -2.077393,5.618486 -9.810954,5.962169 -15,6.134462 C 18.19374,31.766072 10.721583,31.497033 8.5000001,25.865743 10.575821,20.246205 18.311068,19.902588 23.5,19.730279 c 5.306109,0.234218 12.780036,0.503043 15,6.135464 z"
       id="path3278"
       style="color:#000000;fill:url(#radialGradient2921);fill-opacity:1;fill-rule:nonzero;stroke:none;stroke-width:1;marker:none;visibility:visible;display:inline;overflow:visible" />
    <path
       d="m 11.5,-9 0,34.728952 C 11.48135,27.986939 18.696271,29.5 23.5,29.5 c 4.893032,0 12.018646,-1.596082 12,-3.771048 L 35.5,-9 c -0.07066,-1.759862 -8,-3.5 -12,-3.5 -4,0 -12.018646,1.657117 -12,3.5 z"
       id="path2957"
       style="opacity:0.6;fill:url(#linearGradient4247);fill-opacity:1;stroke:#242424;stroke-width:0.96418482px;stroke-linecap:butt;stroke-linejoin:round;stroke-opacity:1" />
    <path
       d="m 34.649656,43.445534 a 11.430815,2.9247899 0 1 1 -22.861629,0 11.430815,2.9247899 0 1 1 22.861629,0 z"
       transform="matrix(1.0060525,0,0,1.1426977,0.1406259,-24.051372)"
       id="path4263"
       style="fill:#fbfbfb;fill-opacity:0.49411765;stroke:none" />
    <path
       d="m 14.5,10.726 0,13.143647 c -0.01865,2.257988 5,2.788956 9,2.788956 4,0 9.018646,-0.613989 9,-2.788956 L 32.5,10.726 C 32.42934,8.9661385 27.5,8.5 23.5,8.5 c -4,0 -9.018646,0.3831165 -9,2.226 z"
       id="path4265"
       style="fill:url(#linearGradient4289);fill-opacity:1;stroke:url(#linearGradient4287);stroke-width:0.96418482px;stroke-linecap:butt;stroke-linejoin:miter;stroke-opacity:1" />
    <path
       d="M 12,-9.1330114 12,25.264126 C 11.98135,28.020238 19.5,29 23.5,29 c 4,0 11.518646,-0.813716 11.5,-3.735874 l 0,-34.3971374 c 0.01864,1.8100393 -8.035819,2.9394895 -12.035819,2.9394895 -4,0 -10.982827,-1.0464292 -10.964181,-2.9394895 z"
       id="path4251"
       style="fill:url(#linearGradient4261);fill-opacity:1;stroke:none" />
    <path
       d="m 32,10.920938 a 8.5,1.9301396 0 0 1 -17,0 8.5,1.9301396 0 1 1 17,0 z"
       id="path4271"
       style="fill:url(#linearGradient4305);fill-opacity:1;stroke:none" />
    <path
       d="m 15.5,11.226 0,11.874 c -0.01865,2.257988 4,2.559 8,2.559 4,0 8.018646,-0.384033 8,-2.559 l 0,-11.874 C 31.42934,9.4661385 27.5,9.5 23.5,9.5 c -4,0 -8.018646,-0.1168835 -8,1.726 z"
       id="path2883"
       style="opacity:0.2;fill:none;stroke:#fefefe;stroke-width:0.96418482px;stroke-linecap:butt;stroke-linejoin:miter;stroke-opacity:1" />
    <path
       d="m 14.5,9.869647 c -0.01865,2.257988 5,2.788956 9,2.788956 4,0 9.018646,-0.613989 9,-2.788956"
       id="path4417"
       style="fill:none;stroke:url(#linearGradient4419);stroke-width:0.96399999;stroke-linecap:butt;stroke-linejoin:miter;stroke-miterlimit:4;stroke-opacity:1;stroke-dasharray:none" />
    <path
       d="m 34.649656,43.445534 a 11.430815,2.5340338 0 1 1 -22.861629,0 11.430815,2.5340338 0 1 1 22.861629,0 z"
       transform="matrix(1.0060525,0,0,1.1426977,0.1406259,-58.438284)"
       id="path4273"
       style="fill:url(#linearGradient4331);fill-opacity:1;stroke:none" />
    <path
       d="m 26.5,-10.073 c 0,0.88213 -0.556817,1.598515 -3.028305,1.598515 -2.471492,0 -2.993129,-0.7166454 -2.971695,-1.598515 0.08931,-3.674447 -0.444326,-4.404275 3.060999,-4.412761 C 26.826721,-14.493661 26.5,-13.698622 26.5,-10.073 z"
       id="path3878"
       style="fill:url(#linearGradient2900);fill-opacity:1;stroke:url(#linearGradient2902);stroke-width:0.99999988;stroke-miterlimit:4;stroke-opacity:1;stroke-dasharray:none" />
    <path
       d="m 26.5,-13.796 c 0.03557,0.574908 -0.4789,1.321514 -2.96418,1.321514 -2.485282,0 -3.03582,-0.939484 -3.03582,-1.321395 0,-0.471212 1.668302,-0.767663 3.035821,-0.69627 1.367518,0.07139 2.928605,0.121243 2.964179,0.696151 z"
       id="path3880"
       style="fill:url(#linearGradient4086-8);fill-opacity:1;stroke:url(#linearGradient4088-8);stroke-width:0.9999997;stroke-miterlimit:4;stroke-opacity:1;stroke-dasharray:none" />
    <path
       d="m 35.5,-9 c -0.07066,1.759862 -8,3.5 -12,3.5 -4,0 -12.018646,-1.657117 -12,-3.5"
       id="path4440"
       style="opacity:0.6;fill:none;stroke:#686868;stroke-width:0.96418482px;stroke-linecap:butt;stroke-linejoin:round;stroke-opacity:1" />
    <rect
       width="2.3748715"
       height="32.052338"
       rx="1.1874357"
       ry="0.92807764"
       x="27.968105"
       y="-5.6375523"
       id="rect9419"
       style="fill:url(#linearGradient4461);fill-opacity:1;stroke:none;display:inline;filter:url(#filter9752);enable-background:new" />
  </g>
  <g
     transform="translate(0,-2)"
     id="g3421"
     style="opacity:0.4">
    <path
       d="m 28.769428,17.999999 -4.526732,8 6.757304,0 L 21.212031,40 23.925983,29 17,29 l 3.706427,-11.000001 8.063001,0 0,0 z"
       id="path3419"
       style="fill:#ffffff;fill-opacity:1;stroke:none;display:inline;enable-background:new" />
    <path
       d="m 28.769428,16.999999 -4.526732,8 6.757304,0 L 21.212031,39 23.925983,28 17,28 l 3.706427,-11.000001 8.063001,0 0,0 z"
       id="path2911"
       style="fill:#000000;fill-opacity:1;stroke:none;display:inline;enable-background:new" />
  </g>
</svg>

<?xml version="1.0" encoding="UTF-8" standalone="no"?>
<!-- Created with Inkscape (http://www.inkscape.org/) -->
<svg id="svg2945" xmlns="http://www.w3.org/2000/svg" height="48" width="48" version="1.1" xmlns:xlink="http://www.w3.org/1999/xlink">
 <defs id="defs2947">
  <linearGradient id="linearGradient4281">
   <stop id="stop4283" style="stop-color:#69aa28" offset="0"/>
   <stop id="stop4285" style="stop-color:#548820" offset="1"/>
  </linearGradient>
  <linearGradient id="linearGradient4247" y2="23" gradientUnits="userSpaceOnUse" x2="32" gradientTransform="matrix(1 0 0 .92965 0 -13.781)" y1="23" x1="15">
   <stop id="stop4243" style="stop-opacity:.27059" offset="0"/>
   <stop id="stop4249" style="stop-opacity:0" offset=".5"/>
   <stop id="stop4245" style="stop-opacity:.27059" offset="1"/>
  </linearGradient>
  <linearGradient id="linearGradient4261" y2="23" gradientUnits="userSpaceOnUse" x2="32" gradientTransform="matrix(1 0 0 .92965 0 -13.781)" y1="23" x1="15">
   <stop id="stop4255" style="stop-opacity:.10588" offset="0"/>
   <stop id="stop4257" style="stop-opacity:0" offset=".5"/>
   <stop id="stop4259" style="stop-opacity:.10588" offset="1"/>
  </linearGradient>
  <linearGradient id="linearGradient4287" y2="43.218" xlink:href="#linearGradient4281" gradientUnits="userSpaceOnUse" x2="26.856" gradientTransform="matrix(1 0 0 .92965 0 -13.781)" y1="5.8" x1="18.805"/>
  <linearGradient id="linearGradient4289" y2="23" gradientUnits="userSpaceOnUse" x2="32" gradientTransform="matrix(1 0 0 .92965 0 -13.781)" y1="23" x1="15">
   <stop id="stop4293" style="stop-color:#8cab2a" offset="0"/>
   <stop id="stop4295" style="stop-color:#d7e866" offset=".37918"/>
   <stop id="stop4297" style="stop-color:#8cab2a" offset="1"/>
  </linearGradient>
  <linearGradient id="linearGradient4305" y2="43.446" gradientUnits="userSpaceOnUse" x2="32.697" gradientTransform="matrix(1.0061 0 0 .90056 .14063 -28.204)" y1="44.446" x1="13.776">
   <stop id="stop4301" style="stop-color:#d7e866" offset="0"/>
   <stop id="stop4303" style="stop-color:#fbfbfb;stop-opacity:0" offset="1"/>
  </linearGradient>
  <linearGradient id="linearGradient4331" y2="43.446" gradientUnits="userSpaceOnUse" x2="34.65" y1="43.446" x1="11.788">
   <stop id="stop4327" style="stop-color:#fbfbfb;stop-opacity:.58824" offset="0"/>
   <stop id="stop4329" style="stop-color:#fbfbfb;stop-opacity:0" offset="1"/>
  </linearGradient>
  <linearGradient id="linearGradient4086-8" y2="-24.582" spreadMethod="reflect" gradientUnits="userSpaceOnUse" x2="102.31" gradientTransform="matrix(.17927 0 0 .14630 6.3662 -11.818)" y1="-2.3925" x1="102.31">
   <stop id="stop3846-5-2" style="stop-color:#a5a6a8" offset="0"/>
   <stop id="stop3848-7-9" style="stop-color:#e8e8e8" offset="1"/>
  </linearGradient>
  <linearGradient id="linearGradient4088-8" y2="-2.3758" gradientUnits="userSpaceOnUse" x2="109.96" gradientTransform="matrix(.17927 0 0 .14630 6.3662 -11.818)" y1="-24.911" x1="109.96">
   <stop id="stop2511-4-1" style="stop-color:#b3b3b3" offset="0"/>
   <stop id="stop2513-9-0" style="stop-color:#dadada" offset="1"/>
  </linearGradient>
  <linearGradient id="linearGradient2900" y2="-7.6657" spreadMethod="reflect" gradientUnits="userSpaceOnUse" x2="89.424" gradientTransform="matrix(.17836 0 0 .15586 5.1996 -7.9656)" y1="-7.6657" x1="103.95">
   <stop id="stop2795-3-2" style="stop-color:#868688" offset="0"/>
   <stop id="stop2797-1-0" style="stop-color:#d9d9da" offset="1"/>
  </linearGradient>
  <linearGradient id="linearGradient2902" y2="27.546" gradientUnits="userSpaceOnUse" x2="89.018" gradientTransform="matrix(.38958 0 0 .36055 -12.941 -18.226)" y1="22.537" x1="89.018">
   <stop id="stop3860-3-1" style="stop-color:#a0a0a0" offset="0"/>
   <stop id="stop3862-8-0" style="stop-color:#646464" offset="1"/>
  </linearGradient>
  <linearGradient id="linearGradient4419" y2="61.085" xlink:href="#linearGradient4281" gradientUnits="userSpaceOnUse" x2="29.624" gradientTransform="matrix(1 0 0 .92965 0 -27.781)" y1="27.732" x1="22"/>
  <radialGradient id="radialGradient2921" gradientUnits="userSpaceOnUse" cy="14.125" cx="21.344" gradientTransform="matrix(1.2533 0 0 .43051 -3.2493 19.785)" r="11.969">
   <stop id="stop3282" offset="0"/>
   <stop id="stop3284" style="stop-opacity:0" offset="1"/>
  </radialGradient>
  <filter id="filter9752" height="1.1294" width="2.6593" color-interpolation-filters="sRGB" y="-.064677" x="-.82964">
   <feGaussianBlur id="feGaussianBlur9754" stdDeviation="1.0370543"/>
  </filter>
  <linearGradient id="linearGradient4461" y2="110.92" gradientUnits="userSpaceOnUse" x2="718.5" gradientTransform="translate(-689.66 -67.585)" y1="56.875" x1="718.5">
   <stop id="stop9423" style="stop-color:#fff" offset="0"/>
   <stop id="stop9425" style="stop-color:#fff;stop-opacity:0" offset="1"/>
  </linearGradient>
 </defs>
 <g id="layer1" transform="translate(0,16)">
  <path id="path3278" style="color:#000000;fill:url(#radialGradient2921)" d="m38.5 25.866c-2.0774 5.6185-9.811 5.9622-15 6.1345-5.306-0.234-12.778-0.503-15-6.134 2.076-5.62 9.811-5.963 15-6.136 5.3061 0.23422 12.78 0.50304 15 6.1355z"/>
  <path id="path2957" style="opacity:.6;stroke-linejoin:round;stroke:#242424;stroke-width:.96418px;fill:url(#linearGradient4247)" d="m11.5-9v34.729c-0.019 2.258 7.196 3.771 12 3.771 4.893 0 12.019-1.5961 12-3.771v-34.729c-0.07066-1.7599-8-3.5-12-3.5s-12.019 1.6571-12 3.5z"/>
  <path id="path4263" style="fill:#fbfbfb;fill-opacity:.49412" d="m34.65 43.446a11.431 2.9248 0 1 1 -22.862 0 11.431 2.9248 0 1 1 22.862 0z" transform="matrix(1.0061 0 0 1.1427 .14063 -24.051)"/>
  <path id="path4265" style="stroke:url(#linearGradient4287);stroke-width:.96418px;fill:url(#linearGradient4289)" d="m14.5 10.726v13.144c-0.01865 2.258 5 2.789 9 2.789s9.0186-0.61399 9-2.789v-13.144c-0.071-1.7599-5-2.226-9-2.226s-9.0186 0.38312-9 2.226z"/>
  <path id="path4251" style="fill:url(#linearGradient4261)" d="m12-9.133v34.397c-0.019 2.756 7.5 3.736 11.5 3.736s11.519-0.81372 11.5-3.7359v-34.397c0.01864 1.81-8.0358 2.9395-12.036 2.9395-4 0-10.983-1.0464-10.964-2.9395z"/>
  <path id="path4271" style="fill:url(#linearGradient4305)" d="m32 10.921a8.5 1.9301 0 0 1 -17 0 8.5 1.9301 0 1 1 17 0z"/>
  <path id="path2883" style="opacity:.2;stroke:#fefefe;stroke-width:.96418px;fill:none" d="m15.5 11.226v11.874c-0.01865 2.258 4 2.559 8 2.559s8.0186-0.38403 8-2.559v-11.874c-0.071-1.7599-4-1.726-8-1.726s-8.0186-0.11688-8 1.726z"/>
  <path id="path4417" style="stroke:url(#linearGradient4419);stroke-width:0.964;fill:none" d="m14.5 9.8696c-0.01865 2.258 5 2.789 9 2.789s9.0186-0.61399 9-2.789"/>
  <path id="path4273" style="fill:url(#linearGradient4331)" d="m34.65 43.446a11.431 2.534 0 1 1 -22.862 0 11.431 2.534 0 1 1 22.862 0z" transform="matrix(1.0061 0 0 1.1427 .14063 -58.438)"/>
  <path id="path3878" style="stroke:url(#linearGradient2902);fill:url(#linearGradient2900)" d="m26.5-10.073c0 0.88213-0.55682 1.5985-3.0283 1.5985s-2.9931-0.71665-2.9717-1.5985c0.08931-3.6744-0.44433-4.4043 3.061-4.4128 3.266-0.008 2.939 0.787 2.939 4.413z"/>
  <path id="path3880" style="stroke:url(#linearGradient4088-8);fill:url(#linearGradient4086-8)" d="m26.5-13.796c0.03557 0.57491-0.4789 1.3215-2.9642 1.3215s-3.0358-0.93948-3.0358-1.3214c0-0.47121 1.6683-0.76766 3.0358-0.69627s2.9286 0.12124 2.9642 0.69615z"/>
  <path id="path4440" style="opacity:.6;stroke-linejoin:round;stroke:#686868;stroke-width:.96418px;fill:none" d="m35.5-9c-0.07066 1.7599-8 3.5-12 3.5s-12.019-1.6571-12-3.5"/>
  <rect id="rect9419" style="filter:url(#filter9752);enable-background:new;fill:url(#linearGradient4461)" rx="1.1874" ry=".92808" height="32.052" width="2.3749" y="-5.6376" x="27.968"/>
 </g>
 <g id="g3421" style="opacity:.4" transform="translate(0,-2)">
  <path id="path3419" style="enable-background:new;fill:#fff" d="m28.769 18-4.5267 8h6.7573l-9.787 14 2.714-11h-6.926l3.7064-11h8.063z"/>
  <path id="path2911" style="enable-background:new" d="m28.769 17-4.5267 8h6.7573l-9.787 14 2.714-11h-6.926l3.7064-11h8.063z"/>
 </g>
</svg>
